icons/svg/shields/h_white_round_shield.svg

<?xml version="1.0" encoding="UTF-8" standalone="no"?>
<!-- Generator: Adobe Illustrator 16.0.4, SVG Export Plug-In . SVG Version: 6.00 Build 0)  -->

<svg
   xmlns:dc="http://purl.org/dc/elements/1.1/"
   xmlns:cc="http://creativecommons.org/ns#"
   xmlns:rdf="http://www.w3.org/1999/02/22-rdf-syntax-ns#"
   xmlns:svg="http://www.w3.org/2000/svg"
   xmlns="http://www.w3.org/2000/svg"
   xmlns:sodipodi="http://sodipodi.sourceforge.net/DTD/sodipodi-0.dtd"
   xmlns:inkscape="http://www.inkscape.org/namespaces/inkscape"
   version="1.1"
   id="Слой_1"
   x="0px"
   y="0px"
   width="24"
   height="24"
   viewBox="0 0 23.999999 24"
   enable-background="new 0 0 17.113 17.143"
   xml:space="preserve"
   inkscape:version="0.91 r13725"
   sodipodi:docname="h_white_round_shield.svg"><metadata
     id="metadata13"><rdf:RDF><cc:Work
         rdf:about=""><dc:format>image/svg+xml</dc:format><dc:type
           rdf:resource="http://purl.org/dc/dcmitype/StillImage" /><dc:title /></cc:Work></rdf:RDF></metadata><defs
     id="defs11" /><sodipodi:namedview
     pagecolor="#ffffff"
     bordercolor="#666666"
     borderopacity="1"
     objecttolerance="10"
     gridtolerance="10"
     guidetolerance="10"
     inkscape:pageopacity="0"
     inkscape:pageshadow="2"
     inkscape:window-width="1920"
     inkscape:window-height="1006"
     id="namedview9"
     showgrid="false"
     inkscape:zoom="19.468845"
     inkscape:cx="8.5005127"
     inkscape:cy="13.985752"
     inkscape:window-x="1920"
     inkscape:window-y="0"
     inkscape:window-maximized="1"
     inkscape:current-layer="Слой_1"
     inkscape:snap-object-midpoints="true"
     inkscape:snap-center="true" /><path
     d="m 11.999454,3.807023 c 4.51866,0 8.194431,3.6449521 8.194431,8.193522 0,4.515909 -3.675771,8.192432 -8.194431,8.192432 -4.5175693,0 -8.193342,-3.676523 -8.193342,-8.192432 0,-4.5485699 3.6757727,-8.193522 8.193342,-8.193522 l 0,0 z"
     id="path5"
     inkscape:connector-curvature="0"
     style="color:#000000;clip-rule:nonzero;display:inline;overflow:visible;visibility:visible;opacity:0.84899998;isolation:auto;mix-blend-mode:normal;color-interpolation:sRGB;color-interpolation-filters:linearRGB;solid-color:#000000;solid-opacity:1;fill:#ffffff;fill-opacity:1;fill-rule:nonzero;stroke:none;stroke-width:0.03244878;stroke-linecap:butt;stroke-linejoin:miter;stroke-miterlimit:4;stroke-dasharray:none;stroke-dashoffset:0;stroke-opacity:1;marker:none;color-rendering:auto;image-rendering:auto;shape-rendering:auto;text-rendering:auto;enable-background:accumulate" /><path
     style="color:#000000;clip-rule:nonzero;display:inline;overflow:visible;visibility:visible;opacity:1;isolation:auto;mix-blend-mode:normal;color-interpolation:sRGB;color-interpolation-filters:linearRGB;solid-color:#000000;solid-opacity:1;fill:#000000;fill-opacity:1;fill-rule:nonzero;stroke:none;stroke-width:1;stroke-linecap:butt;stroke-linejoin:miter;stroke-miterlimit:4;stroke-dasharray:none;stroke-dashoffset:0;stroke-opacity:1;marker:none;color-rendering:auto;image-rendering:auto;shape-rendering:auto;text-rendering:auto;enable-background:accumulate"
     d="M 11.999999,3.0818469 C 7.0659338,3.0818469 3.081846,7.064343 3.081846,12 c 0,4.905528 3.9840878,8.918153 8.918153,8.918153 4.935107,0 8.918153,-4.012623 8.918153,-8.918153 0,-4.935657 -3.983046,-8.9181531 -8.918153,-8.9181531 z m 0,0.7246 c 4.51866,0 8.193553,3.6449829 8.193553,8.1935531 0,4.515907 -3.674892,8.193553 -8.193553,8.193553 -4.5175688,0 -8.1935531,-3.677646 -8.1935531,-8.193553 0,-4.5485702 3.6759843,-8.1935531 8.1935531,-8.1935531 z"
     id="path3-3"
     inkscape:connector-curvature="0" /></svg>

<svg width="24" height="24" viewBox="0 0 24 24" fill="none" xmlns="http://www.w3.org/2000/svg">
<path opacity="0.849" d="M11.9994 3.80701C16.5181 3.80701 20.1939 7.45196 20.1939 12.0005C20.1939 16.5164 16.5181 20.193 11.9994 20.193C7.48188 20.193 3.80611 16.5164 3.80611 12.0005C3.80611 7.45196 7.48188 3.80701 11.9994 3.80701V3.80701Z" fill="white"/>
<path d="M12 3.08179C7.06594 3.08179 3.08185 7.06428 3.08185 11.9999C3.08185 16.9055 7.06594 20.9181 12 20.9181C16.9351 20.9181 20.9182 16.9055 20.9182 11.9999C20.9182 7.06428 16.9351 3.08179 12 3.08179V3.08179ZM12 3.80639C16.5187 3.80639 20.1936 7.45137 20.1936 11.9999C20.1936 16.5158 16.5187 20.1935 12 20.1935C7.48243 20.1935 3.80645 16.5158 3.80645 11.9999C3.80645 7.45137 7.48243 3.80639 12 3.80639V3.80639Z" fill="black"/>
</svg>
